src/icons/plus-circled.svg

<svg xmlns="http://www.w3.org/2000/svg" width="512" height="512" viewBox="0 0 512 512">
    <path fill-rule="nonzero" d="M256 96c-88.4 0-160 71.6-160 160s71.6 160 160 160 160-71.6 160-160S344.4 96 256 96zm91.4 171.4h-80v80h-22.9v-80h-80v-22.9h80v-80h22.9v80h80v22.9z"/>
</svg>

<?xml version="1.0" encoding="UTF-8"?>
<svg width="512px" height="512px" viewBox="0 0 512 512" version="1.1" xmlns="http://www.w3.org/2000/svg" xmlns:xlink="http://www.w3.org/1999/xlink">
    <!-- Generator: Sketch 62 (91390) - https://sketch.com -->
    <title>plus-circled</title>
    <desc>Created with Sketch.</desc>
    <g id="plus-circled" stroke="none" stroke-width="1" fill="none" fill-rule="evenodd">
        <path d="M256,96 C167.6,96 96,167.6 96,256 C96,344.4 167.6,416 256,416 C344.4,416 416,344.4 416,256 C416,167.6 344.4,96 256,96 Z M347.4,267.4 L267.4,267.4 L267.4,347.4 L244.5,347.4 L244.5,267.4 L164.5,267.4 L164.5,244.5 L244.5,244.5 L244.5,164.5 L267.4,164.5 L267.4,244.5 L347.4,244.5 L347.4,267.4 Z" id="Shape" fill="#000000" fill-rule="nonzero"></path>
    </g>
</svg>
